X:311
T: EI DU EDLER TANNENBAUM
N: E0175B
O: Europa, Mitteleuropa, Deutschland, Kuhlaendchen
R: erzaehlendes Volks - Lied, Sage, Pflanzen - Maerchen
M: 3/4
L: 1/8
K: G
 | GG_B2G2 | AAd2
d2 | cc_B2G2 | =F4
FG | GG_B2G2 | A2d2
d2 | _BGBAGF | G6

@@@ Tune index: 3961
